X:4948
T:Fair Wind, A
R:reel
H:Also played in A, #535
Z:id:hn-reel-517
M:C|
K:G
DGGF ~G3A|BAGA BA~A2|DGGF ~G3A|1 BAGE EDDE:|2 BAGE EDDA||
|:BddB ~G3A|BddB cAAc|BddB ~G3A|1 BAGE EDDA:|2 BAGE EDDE||
|:GE~E2 c3A|B2dB AcBA|GE~E2 c3A|1 BAGE EDDE:|2 BAGE EDDE||
